X:10
T:Doktor Bergstr\"oms polska
R:polska L1
H:efter Magnus Olsson
A:V\"armland, Arvika
Z:id:hn-L1-10
M:3/4
L:1/8
K:D
A>F DF E2- | E>F G>B A2- | A>c e2 e2 | g>f d>f A2 | 
A>F DF E2- | E>F G>B A2- | A>c e2 ed | (3cBc d4 :|
|: A2 a2 f2 | d2 b2 g2 | e2 g>f d2- | d2 (3cec A2- |
A2 a>g fe | d>f f>a gf | e>f g>f ed | cB/c/ d4 :|

